static/img/kroki/9166b9d5fd6864122dbcdd2d85dede0e.svg

<?xml version="1.0" encoding="us-ascii" standalone="no"?><svg xmlns="http://www.w3.org/2000/svg" xmlns:xlink="http://www.w3.org/1999/xlink" contentStyleType="text/css" height="1085px" preserveAspectRatio="none" style="width:306px;height:1085px;" version="1.1" viewBox="0 0 306 1085" width="306px" zoomAndPan="magnify"><defs/><g><!--class azure_mysql_server_database--><g id="elem_azure_mysql_server_database"><rect codeLine="23" fill="#3D176E" height="152.9766" id="azure_mysql_server_database" rx="2.5" ry="2.5" style="stroke:#000D19;stroke-width:0.5;" width="292" x="7" y="660.14"/><ellipse cx="22" cy="680.0345" fill="#ADD1B2" rx="11" ry="11" style="stroke:#181818;stroke-width:1.0;"/><path d="M24.9688,685.6752 Q24.3906,685.972 23.75,686.1127 Q23.1094,686.2689 22.4063,686.2689 Q19.9063,686.2689 18.5781,684.6283 Q17.2656,682.972 17.2656,679.847 Q17.2656,676.722 18.5781,675.0658 Q19.9063,673.4095 22.4063,673.4095 Q23.1094,673.4095 23.75,673.5658 Q24.4063,673.722 24.9688,674.0189 L24.9688,676.7377 Q24.3438,676.1595 23.75,675.8939 Q23.1563,675.6127 22.5313,675.6127 Q21.1875,675.6127 20.5,676.6908 Q19.8125,677.7533 19.8125,679.847 Q19.8125,681.9408 20.5,683.0189 Q21.1875,684.0814 22.5313,684.0814 Q23.1563,684.0814 23.75,683.8158 Q24.3438,683.5345 24.9688,682.9564 L24.9688,685.6752 Z " fill="#000000"/><text fill="#D9B8FF" font-family="Helvetica" font-size="17" lengthAdjust="spacing" textLength="250" x="41" y="685.9198">azure_mysql_server_database</text><line style="stroke:#000D19;stroke-width:0.5;" x1="8" x2="298" y1="699.9291" y2="699.9291"/><text fill="#D9B8FF" font-family="sans-serif" font-size="14" font-weight="bold" lengthAdjust="spacing" textLength="60" x="18" y="721.9242">charset</text><text fill="#D9B8FF" font-family="sans-serif" font-size="14" lengthAdjust="spacing" textLength="48" x="78" y="721.9242">: string</text><text fill="#D9B8FF" font-family="sans-serif" font-size="14" font-weight="bold" lengthAdjust="spacing" textLength="66" x="18" y="748.2211">collation</text><text fill="#D9B8FF" font-family="sans-serif" font-size="14" lengthAdjust="spacing" textLength="48" x="84" y="748.2211">: string</text><text fill="#D9B8FF" font-family="sans-serif" font-size="14" font-weight="bold" lengthAdjust="spacing" textLength="98" x="18" y="774.5179">system_data</text><text fill="#D9B8FF" font-family="sans-serif" font-size="14" lengthAdjust="spacing" textLength="142" x="116" y="774.5179">: azure_system_data</text><text fill="#D9B8FF" font-family="sans-serif" font-size="14" font-weight="bold" lengthAdjust="spacing" textLength="35" x="18" y="800.8148">type</text><text fill="#D9B8FF" font-family="sans-serif" font-size="14" lengthAdjust="spacing" textLength="48" x="53" y="800.8148">: string</text></g><!--class azure_system_data--><g id="elem_azure_system_data"><rect codeLine="29" fill="#3D176E" height="205.5703" id="azure_system_data" rx="2.5" ry="2.5" style="stroke:#000D19;stroke-width:0.5;" width="241" x="32.5" y="873.12"/><ellipse cx="64.6" cy="893.0145" fill="#ADD1B2" rx="11" ry="11" style="stroke:#181818;stroke-width:1.0;"/><path d="M67.5688,898.6552 Q66.9906,898.952 66.35,899.0927 Q65.7094,899.2489 65.0063,899.2489 Q62.5062,899.2489 61.1781,897.6083 Q59.8656,895.952 59.8656,892.827 Q59.8656,889.702 61.1781,888.0458 Q62.5062,886.3895 65.0063,886.3895 Q65.7094,886.3895 66.35,886.5458 Q67.0063,886.702 67.5688,886.9989 L67.5688,889.7177 Q66.9438,889.1395 66.35,888.8739 Q65.7563,888.5927 65.1313,888.5927 Q63.7875,888.5927 63.1,889.6708 Q62.4125,890.7333 62.4125,892.827 Q62.4125,894.9208 63.1,895.9989 Q63.7875,897.0614 65.1313,897.0614 Q65.7563,897.0614 66.35,896.7958 Q66.9438,896.5145 67.5688,895.9364 L67.5688,898.6552 Z " fill="#000000"/><text fill="#D9B8FF" font-family="Helvetica" font-size="17" lengthAdjust="spacing" textLength="161" x="87.4" y="898.8998">azure_system_data</text><line style="stroke:#000D19;stroke-width:0.5;" x1="33.5" x2="272.5" y1="912.9091" y2="912.9091"/><text fill="#D9B8FF" font-family="sans-serif" font-size="14" font-weight="bold" lengthAdjust="spacing" textLength="83" x="43.5" y="934.9042">created_at</text><text fill="#D9B8FF" font-family="sans-serif" font-size="14" lengthAdjust="spacing" textLength="70" x="126.5" y="934.9042">: datetime</text><text fill="#D9B8FF" font-family="sans-serif" font-size="14" font-weight="bold" lengthAdjust="spacing" textLength="87" x="43.5" y="961.2011">created_by</text><text fill="#D9B8FF" font-family="sans-serif" font-size="14" lengthAdjust="spacing" textLength="48" x="130.5" y="961.2011">: string</text><text fill="#D9B8FF" font-family="sans-serif" font-size="14" font-weight="bold" lengthAdjust="spacing" textLength="129" x="43.5" y="987.4979">created_by_type</text><text fill="#D9B8FF" font-family="sans-serif" font-size="14" lengthAdjust="spacing" textLength="48" x="172.5" y="987.4979">: string</text><text fill="#D9B8FF" font-family="sans-serif" font-size="14" font-weight="bold" lengthAdjust="spacing" textLength="125" x="43.5" y="1013.7948">last_modified_at</text><text fill="#D9B8FF" font-family="sans-serif" font-size="14" lengthAdjust="spacing" textLength="70" x="168.5" y="1013.7948">: datetime</text><text fill="#D9B8FF" font-family="sans-serif" font-size="14" font-weight="bold" lengthAdjust="spacing" textLength="129" x="43.5" y="1040.0917">last_modified_by</text><text fill="#D9B8FF" font-family="sans-serif" font-size="14" lengthAdjust="spacing" textLength="48" x="172.5" y="1040.0917">: string</text><text fill="#D9B8FF" font-family="sans-serif" font-size="14" font-weight="bold" lengthAdjust="spacing" textLength="171" x="43.5" y="1066.3886">last_modified_by_type</text><text fill="#D9B8FF" font-family="sans-serif" font-size="14" lengthAdjust="spacing" textLength="48" x="214.5" y="1066.3886">: string</text></g><!--class microsoft_resource--><g id="elem_microsoft_resource"><rect codeLine="37" fill="#3D176E" height="100.3828" id="microsoft_resource" rx="2.5" ry="2.5" style="stroke:#000D19;stroke-width:0.5;" width="214" x="46" y="438.76"/><ellipse cx="67.3" cy="458.6545" fill="#ADD1B2" rx="11" ry="11" style="stroke:#181818;stroke-width:1.0;"/><path d="M70.2688,464.2952 Q69.6906,464.592 69.05,464.7327 Q68.4094,464.8889 67.7063,464.8889 Q65.2063,464.8889 63.8781,463.2483 Q62.5656,461.592 62.5656,458.467 Q62.5656,455.342 63.8781,453.6858 Q65.2063,452.0295 67.7063,452.0295 Q68.4094,452.0295 69.05,452.1858 Q69.7063,452.342 70.2688,452.6389 L70.2688,455.3577 Q69.6438,454.7795 69.05,454.5139 Q68.4563,454.2327 67.8313,454.2327 Q66.4875,454.2327 65.8,455.3108 Q65.1125,456.3733 65.1125,458.467 Q65.1125,460.5608 65.8,461.6389 Q66.4875,462.7014 67.8313,462.7014 Q68.4563,462.7014 69.05,462.4358 Q69.6438,462.1545 70.2688,461.5764 L70.2688,464.2952 Z " fill="#000000"/><text fill="#D9B8FF" font-family="Helvetica" font-size="17" lengthAdjust="spacing" textLength="158" x="87.7" y="464.5398">microsoft_resource</text><line style="stroke:#000D19;stroke-width:0.5;" x1="47" x2="259" y1="478.5491" y2="478.5491"/><text fill="#D9B8FF" font-family="sans-serif" font-size="14" font-weight="bold" lengthAdjust="spacing" textLength="35" x="57" y="500.5442">etag</text><text fill="#D9B8FF" font-family="sans-serif" font-size="14" lengthAdjust="spacing" textLength="48" x="92" y="500.5442">: string</text><text fill="#D9B8FF" font-family="sans-serif" font-size="14" font-weight="bold" lengthAdjust="spacing" textLength="144" x="57" y="526.8411">provisioning_state</text><text fill="#D9B8FF" font-family="sans-serif" font-size="14" lengthAdjust="spacing" textLength="48" x="201" y="526.8411">: string</text></g><!--class resource--><g id="elem_resource"><rect codeLine="41" fill="#3D176E" height="310.7578" id="resource" rx="2.5" ry="2.5" style="stroke:#000D19;stroke-width:0.5;" width="227" x="39.5" y="7"/><ellipse cx="108.25" cy="26.8945" fill="#ADD1B2" rx="11" ry="11" style="stroke:#181818;stroke-width:1.0;"/><path d="M111.2188,32.5352 Q110.6406,32.832 110,32.9727 Q109.3594,33.1289 108.6563,33.1289 Q106.1563,33.1289 104.8281,31.4883 Q103.5156,29.832 103.5156,26.707 Q103.5156,23.582 104.8281,21.9258 Q106.1563,20.2695 108.6563,20.2695 Q109.3594,20.2695 110,20.4258 Q110.6563,20.582 111.2188,20.8789 L111.2188,23.5977 Q110.5938,23.0195 110,22.7539 Q109.4063,22.4727 108.7813,22.4727 Q107.4375,22.4727 106.75,23.5508 Q106.0625,24.6133 106.0625,26.707 Q106.0625,28.8008 106.75,29.8789 Q107.4375,30.9414 108.7813,30.9414 Q109.4063,30.9414 110,30.6758 Q110.5938,30.3945 111.2188,29.8164 L111.2188,32.5352 Z " fill="#000000"/><text fill="#D9B8FF" font-family="Helvetica" font-size="17" lengthAdjust="spacing" textLength="71" x="133.75" y="32.7798">resource</text><line style="stroke:#000D19;stroke-width:0.5;" x1="40.5" x2="265.5" y1="46.7891" y2="46.7891"/><text fill="#D9B8FF" font-family="sans-serif" font-size="14" font-weight="bold" lengthAdjust="spacing" textLength="29" x="50.5" y="68.7842">age</text><text fill="#D9B8FF" font-family="sans-serif" font-size="14" lengthAdjust="spacing" textLength="66" x="79.5" y="68.7842">: duration</text><text fill="#D9B8FF" font-family="sans-serif" font-size="14" font-weight="bold" lengthAdjust="spacing" textLength="43" x="50.5" y="95.0811">atime</text><text fill="#D9B8FF" font-family="sans-serif" font-size="14" lengthAdjust="spacing" textLength="70" x="93.5" y="95.0811">: datetime</text><text fill="#D9B8FF" font-family="sans-serif" font-size="14" font-weight="bold" lengthAdjust="spacing" textLength="43" x="50.5" y="121.3779">ctime</text><text fill="#D9B8FF" font-family="sans-serif" font-size="14" lengthAdjust="spacing" textLength="70" x="93.5" y="121.3779">: datetime</text><text fill="#D9B8FF" font-family="sans-serif" font-size="14" font-weight="bold" lengthAdjust="spacing" textLength="14" x="50.5" y="147.6748">id</text><text fill="#D9B8FF" font-family="sans-serif" font-size="14" lengthAdjust="spacing" textLength="48" x="64.5" y="147.6748">: string</text><text fill="#D9B8FF" font-family="sans-serif" font-size="14" font-weight="bold" lengthAdjust="spacing" textLength="33" x="50.5" y="173.9717">kind</text><text fill="#D9B8FF" font-family="sans-serif" font-size="14" lengthAdjust="spacing" textLength="48" x="83.5" y="173.9717">: string</text><text fill="#D9B8FF" font-family="sans-serif" font-size="14" font-weight="bold" lengthAdjust="spacing" textLength="90" x="50.5" y="200.2686">last_access</text><text fill="#D9B8FF" font-family="sans-serif" font-size="14" lengthAdjust="spacing" textLength="66" x="140.5" y="200.2686">: duration</text><text fill="#D9B8FF" font-family="sans-serif" font-size="14" font-weight="bold" lengthAdjust="spacing" textLength="90" x="50.5" y="226.5654">last_update</text><text fill="#D9B8FF" font-family="sans-serif" font-size="14" lengthAdjust="spacing" textLength="66" x="140.5" y="226.5654">: duration</text><text fill="#D9B8FF" font-family="sans-serif" font-size="14" font-weight="bold" lengthAdjust="spacing" textLength="48" x="50.5" y="252.8623">mtime</text><text fill="#D9B8FF" font-family="sans-serif" font-size="14" lengthAdjust="spacing" textLength="70" x="98.5" y="252.8623">: datetime</text><text fill="#D9B8FF" font-family="sans-serif" font-size="14" font-weight="bold" lengthAdjust="spacing" textLength="43" x="50.5" y="279.1592">name</text><text fill="#D9B8FF" font-family="sans-serif" font-size="14" lengthAdjust="spacing" textLength="48" x="93.5" y="279.1592">: string</text><text fill="#D9B8FF" font-family="sans-serif" font-size="14" font-weight="bold" lengthAdjust="spacing" textLength="34" x="50.5" y="305.4561">tags</text><text fill="#D9B8FF" font-family="sans-serif" font-size="14" lengthAdjust="spacing" textLength="171" x="84.5" y="305.4561">: dictionary[string, string]</text></g><!--link azure_mysql_server_database to azure_system_data--><g id="link_azure_mysql_server_database_azure_system_data"><path codeLine="53" d="M153,813.36 C153,832.21 153,846.73 153,866.63 " fill="none" id="azure_mysql_server_database-to-azure_system_data" style="stroke:#FFAF37;stroke-width:2.0;"/><polygon fill="#FFAF37" points="153,872.63,157,863.63,153,867.63,149,863.63,153,872.63" style="stroke:#FFAF37;stroke-width:2.0;"/></g><!--reverse link microsoft_resource to azure_mysql_server_database--><g id="link_microsoft_resource_azure_mysql_server_database"><path codeLine="54" d="M153,557.37 C153,591.84 153,620.5 153,659.67 " fill="none" id="microsoft_resource-backto-azure_mysql_server_database" style="stroke:#FFAF37;stroke-width:2.0;"/><polygon fill="none" points="153,539.37,147,557.37,159,557.37,153,539.37" style="stroke:#FFAF37;stroke-width:2.0;"/></g><!--reverse link resource to microsoft_resource--><g id="link_resource_microsoft_resource"><path codeLine="55" d="M153,336.06 C153,379.66 153,405.98 153,438.42 " fill="none" id="resource-backto-microsoft_resource" style="stroke:#FFAF37;stroke-width:2.0;"/><polygon fill="none" points="153,318.06,147,336.06,159,336.06,153,318.06" style="stroke:#FFAF37;stroke-width:2.0;"/></g><!--SRC=[XLJHQjmm47ptLmZoPcAuIqWlLqeXEIZDIoXDtqenQsbz9ywId9LymMdxxvNjQv1bt-NHCwEPsMNnJWfag6hNCeMgGBA9tKjT0u5YTqJcPMCgG-oYBA6yNiNa5wFTku97KCY-OdL09pd4YXyxoVSQhMLN0NKFVBybqsWns3i2RJs5sWMgJGNMtZb7icWS1cN4khWjorWPcrvSY-Ng0qvaXWJIKR9OBCHo7KlUZJexzvlYIRuYMuPBUpGE9pKd4RtgRCjE4PIS3FgVFzdn6mWXzPRT1DZteHDff17-j0DXNZfr2PKDOwn3GkFQ6ZUJgN1zAyhLhFZXb3ZXtUeOl3Q4kMhjSvLRf0DIBi110HRPxoHD-Gx8ealJZzwKVB4ECrK5JXezGcthKrN_kiC7um3qagvGyERlg4CW7P89mQ78eG_tiD-hme0esd6hDpYFSjBKnxXS6I5BEUSufYFVcCnFJA4a9sDDwN92QnhYmmBHmNRaLvCvIEktvpzpwtoB6REH1MnxYMYettg7TCNZjSnWKeoY_Ns8wMp0kVzdH0azqzJYM2zWr4oE1ZLUk1zwS9IyUmRK_XouowFcbn_rtErbsUUP4vhPyQS_MPQTE-Caaauzady0]--></g></svg>

<svg xmlns="http://www.w3.org/2000/svg" width="306" height="1085" viewBox="0 0 306 1085"><rect width="292" height="152.977" x="7" y="660.14" fill="#3D176E" rx="2.5" ry="2.5" style="stroke:#000d19;stroke-width:.5"/><circle cx="22" cy="680.034" r="11" fill="#ADD1B2" style="stroke:#181818;stroke-width:1"/><path d="M24.969 685.675q-.578.297-1.219.438-.64.156-1.344.156-2.5 0-3.828-1.64-1.312-1.657-1.312-4.782t1.312-4.781q1.328-1.657 3.828-1.657.703 0 1.344.157.656.156 1.219.453v2.719q-.625-.579-1.219-.844-.594-.281-1.219-.281-1.343 0-2.031 1.078-.687 1.062-.687 3.156t.687 3.172q.688 1.062 2.031 1.062.625 0 1.219-.265.594-.282 1.219-.86z"/><text x="41" y="685.92" fill="#D9B8FF" font-family="Helvetica" font-size="17" textLength="250">azure_mysql_server_database</text><path d="M8 699.929h290" style="stroke:#000d19;stroke-width:.5"/><text x="18" y="721.924" fill="#D9B8FF" font-family="sans-serif" font-size="14" font-weight="bold" textLength="60">charset</text><text x="78" y="721.924" fill="#D9B8FF" font-family="sans-serif" font-size="14" textLength="48">: string</text><text x="18" y="748.221" fill="#D9B8FF" font-family="sans-serif" font-size="14" font-weight="bold" textLength="66">collation</text><text x="84" y="748.221" fill="#D9B8FF" font-family="sans-serif" font-size="14" textLength="48">: string</text><text x="18" y="774.518" fill="#D9B8FF" font-family="sans-serif" font-size="14" font-weight="bold" textLength="98">system_data</text><text x="116" y="774.518" fill="#D9B8FF" font-family="sans-serif" font-size="14" textLength="142">: azure_system_data</text><text x="18" y="800.815" fill="#D9B8FF" font-family="sans-serif" font-size="14" font-weight="bold" textLength="35">type</text><text x="53" y="800.815" fill="#D9B8FF" font-family="sans-serif" font-size="14" textLength="48">: string</text><rect width="241" height="205.57" x="32.5" y="873.12" fill="#3D176E" rx="2.5" ry="2.5" style="stroke:#000d19;stroke-width:.5"/><circle cx="64.6" cy="893.014" r="11" fill="#ADD1B2" style="stroke:#181818;stroke-width:1"/><path d="M67.569 898.655q-.578.297-1.219.438-.64.156-1.344.156-2.5 0-3.828-1.64-1.312-1.657-1.312-4.782t1.312-4.781q1.328-1.657 3.828-1.657.703 0 1.344.157.656.156 1.219.453v2.719q-.625-.578-1.219-.844-.594-.281-1.219-.281-1.343 0-2.031 1.078-.687 1.062-.687 3.156t.687 3.172q.688 1.062 2.031 1.062.625 0 1.219-.265.594-.282 1.219-.86z"/><text x="87.4" y="898.9" fill="#D9B8FF" font-family="Helvetica" font-size="17" textLength="161">azure_system_data</text><path d="M33.5 912.909h239" style="stroke:#000d19;stroke-width:.5"/><text x="43.5" y="934.904" fill="#D9B8FF" font-family="sans-serif" font-size="14" font-weight="bold" textLength="83">created_at</text><text x="126.5" y="934.904" fill="#D9B8FF" font-family="sans-serif" font-size="14" textLength="70">: datetime</text><text x="43.5" y="961.201" fill="#D9B8FF" font-family="sans-serif" font-size="14" font-weight="bold" textLength="87">created_by</text><text x="130.5" y="961.201" fill="#D9B8FF" font-family="sans-serif" font-size="14" textLength="48">: string</text><text x="43.5" y="987.498" fill="#D9B8FF" font-family="sans-serif" font-size="14" font-weight="bold" textLength="129">created_by_type</text><text x="172.5" y="987.498" fill="#D9B8FF" font-family="sans-serif" font-size="14" textLength="48">: string</text><text x="43.5" y="1013.795" fill="#D9B8FF" font-family="sans-serif" font-size="14" font-weight="bold" textLength="125">last_modified_at</text><text x="168.5" y="1013.795" fill="#D9B8FF" font-family="sans-serif" font-size="14" textLength="70">: datetime</text><text x="43.5" y="1040.092" fill="#D9B8FF" font-family="sans-serif" font-size="14" font-weight="bold" textLength="129">last_modified_by</text><text x="172.5" y="1040.092" fill="#D9B8FF" font-family="sans-serif" font-size="14" textLength="48">: string</text><text x="43.5" y="1066.389" fill="#D9B8FF" font-family="sans-serif" font-size="14" font-weight="bold" textLength="171">last_modified_by_type</text><text x="214.5" y="1066.389" fill="#D9B8FF" font-family="sans-serif" font-size="14" textLength="48">: string</text><rect width="214" height="100.383" x="46" y="438.76" fill="#3D176E" rx="2.5" ry="2.5" style="stroke:#000d19;stroke-width:.5"/><circle cx="67.3" cy="458.654" r="11" fill="#ADD1B2" style="stroke:#181818;stroke-width:1"/><path d="M70.269 464.295q-.578.297-1.219.438-.64.156-1.344.156-2.5 0-3.828-1.64-1.312-1.657-1.312-4.782t1.312-4.781q1.328-1.656 3.828-1.656.703 0 1.344.156.656.156 1.219.453v2.719q-.625-.579-1.219-.844-.594-.281-1.219-.281-1.344 0-2.031 1.078-.687 1.062-.687 3.156t.687 3.172q.688 1.062 2.031 1.062.625 0 1.219-.265.594-.281 1.219-.86z"/><text x="87.7" y="464.54" fill="#D9B8FF" font-family="Helvetica" font-size="17" textLength="158">microsoft_resource</text><path d="M47 478.549h212" style="stroke:#000d19;stroke-width:.5"/><text x="57" y="500.544" fill="#D9B8FF" font-family="sans-serif" font-size="14" font-weight="bold" textLength="35">etag</text><text x="92" y="500.544" fill="#D9B8FF" font-family="sans-serif" font-size="14" textLength="48">: string</text><text x="57" y="526.841" fill="#D9B8FF" font-family="sans-serif" font-size="14" font-weight="bold" textLength="144">provisioning_state</text><text x="201" y="526.841" fill="#D9B8FF" font-family="sans-serif" font-size="14" textLength="48">: string</text><rect width="227" height="310.758" x="39.5" y="7" fill="#3D176E" rx="2.5" ry="2.5" style="stroke:#000d19;stroke-width:.5"/><circle cx="108.25" cy="26.895" r="11" fill="#ADD1B2" style="stroke:#181818;stroke-width:1"/><path d="M111.219 32.535q-.578.297-1.219.438-.64.156-1.344.156-2.5 0-3.828-1.64-1.312-1.657-1.312-4.782t1.312-4.781q1.328-1.656 3.828-1.656.703 0 1.344.156.656.156 1.219.453v2.719q-.625-.578-1.219-.844-.594-.281-1.219-.281-1.344 0-2.031 1.078-.687 1.062-.687 3.156t.687 3.172q.688 1.062 2.031 1.062.625 0 1.219-.265.594-.281 1.219-.86z"/><text x="133.75" y="32.78" fill="#D9B8FF" font-family="Helvetica" font-size="17" textLength="71">resource</text><path d="M40.5 46.789h225" style="stroke:#000d19;stroke-width:.5"/><text x="50.5" y="68.784" fill="#D9B8FF" font-family="sans-serif" font-size="14" font-weight="bold" textLength="29">age</text><text x="79.5" y="68.784" fill="#D9B8FF" font-family="sans-serif" font-size="14" textLength="66">: duration</text><text x="50.5" y="95.081" fill="#D9B8FF" font-family="sans-serif" font-size="14" font-weight="bold" textLength="43">atime</text><text x="93.5" y="95.081" fill="#D9B8FF" font-family="sans-serif" font-size="14" textLength="70">: datetime</text><text x="50.5" y="121.378" fill="#D9B8FF" font-family="sans-serif" font-size="14" font-weight="bold" textLength="43">ctime</text><text x="93.5" y="121.378" fill="#D9B8FF" font-family="sans-serif" font-size="14" textLength="70">: datetime</text><text x="50.5" y="147.675" fill="#D9B8FF" font-family="sans-serif" font-size="14" font-weight="bold" textLength="14">id</text><text x="64.5" y="147.675" fill="#D9B8FF" font-family="sans-serif" font-size="14" textLength="48">: string</text><text x="50.5" y="173.972" fill="#D9B8FF" font-family="sans-serif" font-size="14" font-weight="bold" textLength="33">kind</text><text x="83.5" y="173.972" fill="#D9B8FF" font-family="sans-serif" font-size="14" textLength="48">: string</text><text x="50.5" y="200.269" fill="#D9B8FF" font-family="sans-serif" font-size="14" font-weight="bold" textLength="90">last_access</text><text x="140.5" y="200.269" fill="#D9B8FF" font-family="sans-serif" font-size="14" textLength="66">: duration</text><text x="50.5" y="226.565" fill="#D9B8FF" font-family="sans-serif" font-size="14" font-weight="bold" textLength="90">last_update</text><text x="140.5" y="226.565" fill="#D9B8FF" font-family="sans-serif" font-size="14" textLength="66">: duration</text><text x="50.5" y="252.862" fill="#D9B8FF" font-family="sans-serif" font-size="14" font-weight="bold" textLength="48">mtime</text><text x="98.5" y="252.862" fill="#D9B8FF" font-family="sans-serif" font-size="14" textLength="70">: datetime</text><text x="50.5" y="279.159" fill="#D9B8FF" font-family="sans-serif" font-size="14" font-weight="bold" textLength="43">name</text><text x="93.5" y="279.159" fill="#D9B8FF" font-family="sans-serif" font-size="14" textLength="48">: string</text><text x="50.5" y="305.456" fill="#D9B8FF" font-family="sans-serif" font-size="14" font-weight="bold" textLength="34">tags</text><text x="84.5" y="305.456" fill="#D9B8FF" font-family="sans-serif" font-size="14" textLength="171">: dictionary[string, string]</text><path fill="none" d="M153 813.36v53.27" style="stroke:#ffaf37;stroke-width:2"/><path fill="#FFAF37" d="m153 872.63 4-9-4 4-4-4z" style="stroke:#ffaf37;stroke-width:2"/><path fill="none" d="M153 557.37v102.3m0-120.3-6 18h12zm0-203.31v102.36m0-120.36-6 18h12z" style="stroke:#ffaf37;stroke-width:2"/></svg>
